X:59
T:Polska ur C.E. Södlings notbok
B:C.E. Södling
B:http://www.smus.se/earkiv/fmk/browselarge.php?lang=sw&katalogid=Upprop+26c&bildnr=00064
Z:Nils L
R:Polska
O:Småland
M:3/4
L:1/16
K:Cm
C=B,CD EDEF G4 | FEDC =B,CDC B,2G,2 | C=B,CD EDEF G4 | FEDC =B,CDB, !fine!C4 :|
c'4 =b4 g4 | e'4 d'2c'2 =b2g2 | c'4 =b4 g4 | e'4 d'2c'2 =b2g2 |
a4 g4 z4 | e'4 d'4 c'4 | =bd'bg fafd c4 !D.C.!||

